packages/core/src/svgs/tokens/branded/PAXG.svg

<svg width="24" height="24" viewBox="0 0 24 24" fill="none" xmlns="http://www.w3.org/2000/svg">
<path d="M7.55965 5.04291C7.89438 4.65544 8.24771 4.28443 8.61841 3.93121C2.99521 3.75475 4.63629 7.81335 2.79521 11.9367C0.689459 16.6893 3.04814 18.501 6.56559 19.0598C6.07738 18.4892 5.68329 17.8304 5.37742 17.1187C3.09519 14.26 4.0128 9.0368 7.55965 5.04291ZM21.1 10.1014C20.5766 11.5719 19.6178 13.2248 18.259 14.8483C17.285 16.0319 16.1175 17.0422 14.8063 17.8363C13.2831 18.7985 11.514 19.2989 9.7125 19.2774C8.61841 19.2774 7.54789 19.2186 6.56559 19.0598C7.14447 19.75 7.86188 20.3113 8.67135 20.7068C13.7592 23.1595 14.0829 18.601 19.4649 16.2894C22.4881 14.9894 22.4999 12.4484 21.1 10.1014Z" fill="#EFE812"/>
<path d="M14.8065 5.35468C15.5535 5.48996 16.2653 5.73701 16.9064 6.09581C18.6173 7.05931 20.0592 8.43655 21.1002 10.1014C22.0179 7.52514 21.5943 5.50173 19.5886 5.13116C17.3828 4.73118 15.6594 4.60178 14.0007 3.44891C11.9655 2.02545 10.1773 2.49601 8.62451 3.93123L8.95978 3.94887C11.1126 4.07239 13.1654 4.49002 14.8065 5.36055V5.35468Z" fill="#EEE809"/>
<path d="M7.55988 5.04293C4.01304 9.04271 3.09543 14.26 5.37766 17.1247C4.84715 15.8801 4.61501 14.5289 4.69978 13.1787C4.78456 11.8286 5.18388 10.5169 5.86586 9.34852C7.78928 6.16641 11.642 4.77825 14.8065 5.35469C13.1655 4.49003 11.1127 4.0724 8.9598 3.94301L8.62454 3.93124C8.28926 4.24299 7.94221 4.60767 7.55988 5.04293Z" fill="#DEC21C"/>
<path d="M16.906 6.09575C16.2523 5.73339 15.5425 5.4829 14.8062 5.35461C16.9649 6.48984 18.3942 8.4015 18.3824 11.4426C18.3713 12.7228 18.0378 13.9797 17.4127 15.0972C16.7877 16.2146 15.8912 17.1566 14.8062 17.8362C16.1174 17.0421 17.2848 16.0318 18.2589 14.8482C19.4738 13.4425 20.4351 11.8363 21.0999 10.1014C20.0583 8.43847 18.6164 7.06329 16.906 6.10162V6.09575Z" fill="#E5CB22"/>
<path d="M14.4474 16.3893C13.2771 17.1378 11.8586 17.3939 10.5004 17.102C9.14226 16.8101 7.95427 15.9937 7.19483 14.8305C5.62432 12.4131 6.40076 9.29564 8.75945 7.61922C11.3946 5.74874 14.7827 6.484 16.0179 9.17795C17.2177 11.7955 16.8883 14.8246 14.4474 16.3893ZM14.8003 5.35465C11.6416 4.77821 7.7889 6.16637 5.8655 9.34272C5.18255 10.5118 4.7827 11.8244 4.69793 13.1756C4.61316 14.527 4.8458 15.8792 5.37728 17.1246C5.67726 17.8304 6.07724 18.4891 6.56545 19.0656C7.54775 19.2186 8.62416 19.2773 9.71237 19.2773C11.6592 19.2773 13.4003 18.748 14.8062 17.8363C15.8912 17.1566 16.7877 16.2147 17.4127 15.0972C18.0378 13.9797 18.3713 12.7228 18.3824 11.4426C18.4001 8.40153 16.9649 6.48987 14.8062 5.35465H14.8003Z" fill="#CCA727"/>
</svg>

<svg xmlns="http://www.w3.org/2000/svg" width="24" height="24" fill="none" viewBox="0 0 24 24">
    <path fill="#EFE812" d="M7.56 5.043q.502-.582 1.058-1.112c-5.623-.176-3.982 3.882-5.823 8.006-2.106 4.752.253 6.564 3.77 7.123a7.6 7.6 0 0 1-1.188-1.941C3.095 14.26 4.013 9.037 7.56 5.043M21.1 10.1c-.523 1.47-1.482 3.124-2.841 4.747a13.6 13.6 0 0 1-3.453 2.988 9.33 9.33 0 0 1-5.093 1.441c-1.095 0-2.165-.058-3.147-.217a6.4 6.4 0 0 0 2.105 1.647c5.088 2.453 5.412-2.106 10.794-4.418 3.023-1.3 3.035-3.84 1.635-6.188"/>
    <path fill="#EEE809" d="M14.807 5.355a6.8 6.8 0 0 1 2.1.74 11.76 11.76 0 0 1 4.193 4.006c.918-2.576.494-4.6-1.511-4.97-2.206-.4-3.93-.53-5.588-1.682-2.035-1.424-3.824-.953-5.376.482l.335.018c2.153.123 4.205.541 5.846 1.412z"/>
    <path fill="#DEC21C" d="M7.56 5.043c-3.547 4-4.465 9.217-2.182 12.082a8.68 8.68 0 0 1 .488-7.776c1.923-3.183 5.776-4.57 8.94-3.994-1.64-.865-3.693-1.283-5.846-1.412l-.335-.012c-.336.312-.683.677-1.065 1.112"/>
    <path fill="#E5CB22" d="M16.906 6.096a6.7 6.7 0 0 0-2.1-.741c2.159 1.135 3.588 3.047 3.576 6.088a7.62 7.62 0 0 1-3.576 6.393 13.6 13.6 0 0 0 3.453-2.988 16 16 0 0 0 2.84-4.747 11.74 11.74 0 0 0-4.193-4z"/>
    <path fill="#CCA727" d="M14.447 16.39a5.27 5.27 0 0 1-7.252-1.56c-1.57-2.417-.794-5.534 1.564-7.21 2.636-1.871 6.024-1.136 7.259 1.558 1.2 2.617.87 5.647-1.57 7.211M14.8 5.354c-3.158-.577-7.011.811-8.934 3.988a8.68 8.68 0 0 0-.489 7.782c.3.705.7 1.364 1.188 1.94.983.154 2.06.212 3.147.212 1.947 0 3.688-.529 5.094-1.44a7.62 7.62 0 0 0 3.576-6.394c.018-3.041-1.417-4.953-3.576-6.088z"/>
</svg>
